X:94
T:Burghee's Hole
T:Bugbee's Hole
T:The Beadle of Grub-street
C:John Young, 1728
L:1/4
S:Colin Hume's website,  colinhume.com  - chords can also be printed below the stave.
Q:1/2=112
M:4/4
K:G
P:A
|: B/c/ | "G"dB "Em"GE | "Am"cA "D7"FD | "G"GD "D7"AD | "Em"G/A/B "D7"AD |\
"G"dB "Em"GE | "Am"cA "D7"FD | "G"dB "Em"Ge | "A7"A^c "D"d :|
P:B
|: g/a/ | "G"bG GF | "D/F#"aF FE | "Em"gE ED | "D"fD DC |\
"G"dd dd | "D"d3c | "Em"BG "D7"AF | "G"G3 :|

